icons/desktop/12/svg/email-mask-12.svg

<svg width="12" height="12" viewBox="0 0 12 12" fill="none" xmlns="http://www.w3.org/2000/svg">
<g clip-path="url(#clip0_8069_32460)">
<path fill-rule="evenodd" clip-rule="evenodd" d="M6.79395 6.81006C7.90093 6.73606 9.02397 6.73511 10.127 6.80811C11.1769 6.8781 12.0009 7.75525 12.001 8.8042V9.31006C12.001 10.0899 11.3902 10.7223 10.6104 10.7505C10.3905 10.7575 10.1853 10.75 9.98242 10.729C9.84748 10.715 9.71131 10.6786 9.56738 10.6187L8.79395 10.2925C8.59101 10.2065 8.35822 10.2066 8.15527 10.2925L7.38184 10.6187C7.23784 10.6797 7.10179 10.716 6.9668 10.729C6.81385 10.745 6.65787 10.7524 6.50293 10.7524L6.5 10.7534C6.451 10.7534 6.40154 10.7535 6.35254 10.7515C5.55675 10.7232 4.94629 10.0909 4.94629 9.31104V8.8042C4.94635 7.75627 5.758 6.88007 6.79395 6.81006ZM6.92578 8.25537C6.62994 8.25548 6.36524 8.37986 6.19531 8.57178C6.10707 8.67269 6.10685 8.83136 6.19531 8.93213C6.36524 9.12404 6.62994 9.24842 6.92578 9.24854C7.22153 9.2485 7.48529 9.12388 7.65527 8.93213C7.74426 8.83114 7.74424 8.67278 7.65527 8.57178C7.4853 8.37984 7.2217 8.25541 6.92578 8.25537ZM10.0186 8.25537C9.72274 8.2555 9.45897 8.37988 9.28906 8.57178C9.20038 8.67277 9.20022 8.83124 9.28906 8.93213C9.45898 9.12398 9.72279 9.24841 10.0186 9.24854C10.3144 9.24854 10.579 9.12394 10.749 8.93213C10.8376 8.83126 10.8375 8.67268 10.749 8.57178C10.579 8.37981 10.3145 8.25537 10.0186 8.25537Z" fill="black"/>
<path fill-rule="evenodd" clip-rule="evenodd" d="M1.94141 1.10596C3.61426 0.966994 5.33427 0.964017 7.03711 1.104C8.13899 1.19506 9.00088 2.12718 9.00098 3.22705V5.77002C8.82498 5.76702 8.65061 5.75342 8.47461 5.75342C8.23374 5.75344 7.99187 5.76986 7.75 5.77686V3.22705C7.74997 3.22416 7.74905 3.22115 7.74902 3.21826L6.16211 4.80615C5.70111 5.26615 5.08859 5.49951 4.47559 5.49951C3.92372 5.49942 3.37163 5.31113 2.92773 4.92822C2.59212 4.63938 1.90179 3.97608 1.25 3.34326V5.77197C1.25 6.22597 1.60841 6.61192 2.06641 6.64893C2.7421 6.70441 3.4189 6.73193 4.09473 6.73877H4.77246C4.44454 7.08468 4.20824 7.51307 4.07422 7.98193C3.37322 7.97193 2.66684 7.95302 1.96484 7.89502C0.862916 7.80395 0.000976562 6.87192 0.000976562 5.77197V3.22705C0.0010731 2.11014 0.83547 1.19795 1.94141 1.10596ZM4.5 2.24951C3.68 2.24951 2.85394 2.28405 2.04395 2.35205C2.03741 2.35258 2.0309 2.35333 2.02441 2.354C2.6971 3.00831 3.42001 3.70258 3.74316 3.98096C4.18916 4.36294 4.86137 4.33838 5.27637 3.92139L6.85254 2.34424C6.06911 2.28162 5.27804 2.24951 4.5 2.24951Z" fill="black"/>
</g>
<defs>
<clipPath id="clip0_8069_32460">
<rect width="12" height="12" fill="white"/>
</clipPath>
</defs>
</svg>

<!-- This Source Code Form is subject to the terms of the Mozilla Public
   - License, v. 2.0. If a copy of the MPL was not distributed with this
   - file, You can obtain one at http://mozilla.org/MPL/2.0/. -->
<svg xmlns="http://www.w3.org/2000/svg" width="12" height="12" fill="context-fill" fill-opacity="context-fill-opacity" viewBox="0 0 12 12">
    <g fill-rule="evenodd" clip-path="url(#clip0_8069_32460)" clip-rule="evenodd">
        <path d="M6.794 6.81a25 25 0 0 1 3.333-.002 2.01 2.01 0 0 1 1.874 1.996v.506c0 .78-.61 1.412-1.39 1.44-.22.008-.426 0-.629-.021a1.5 1.5 0 0 1-.415-.11l-.773-.326a.82.82 0 0 0-.639 0l-.773.326q-.214.09-.415.11a5 5 0 0 1-.464.023l-.003.001q-.074 0-.147-.002a1.44 1.44 0 0 1-1.407-1.44v-.507c0-1.048.812-1.924 1.848-1.994m.132 1.445a.98.98 0 0 0-.73.317.28.28 0 0 0 0 .36c.17.192.434.316.73.317.296 0 .56-.125.73-.317a.28.28 0 0 0 0-.36.97.97 0 0 0-.73-.317m3.093 0a.97.97 0 0 0-.73.317.28.28 0 0 0 0 .36c.17.192.434.316.73.317.295 0 .56-.125.73-.317a.28.28 0 0 0 0-.36.98.98 0 0 0-.73-.317" />
        <path d="M1.941 1.106a31 31 0 0 1 5.096-.002 2.146 2.146 0 0 1 1.964 2.123V5.77c-.176-.003-.35-.017-.526-.017-.241 0-.483.017-.725.024v-2.55l-.001-.009-1.587 1.588a2.38 2.38 0 0 1-1.686.694 2.36 2.36 0 0 1-1.548-.572c-.336-.289-1.026-.952-1.678-1.585v2.429c0 .454.358.84.816.877q1.015.081 2.029.09h.677a3 3 0 0 0-.698 1.243 31 31 0 0 1-2.11-.087A2.146 2.146 0 0 1 .002 5.772V3.227a2.11 2.11 0 0 1 1.94-2.121M4.5 2.25c-.82 0-1.646.034-2.456.102l-.02.002c.673.654 1.396 1.349 1.72 1.627a1.13 1.13 0 0 0 1.532-.06l1.577-1.577A30 30 0 0 0 4.5 2.25" />
    </g>
</svg>
